X:535
T:Garry Owen
M:6/8
Q:200
L:1/8
K:D
dc|:BAG FED|FGF Fdc|BAG FED|EFE Edc|
BAG FED|FGF F2G|ABc dAF|1 EFE E dc:|2 EFE EFG||
|A2F A2F|A2F Adc|B2G B2G|B2G B2c|\
d2e f2e|dcB AFG|ABc dAF|1 EFE EFG:|2 EFE E dc||
